X:2549
T:Cantar de Ronda (CT 102)
R:Ronda
C:Tradicional
S:Música Tradicional Asturiana, (C) Tello & Tito. Asturies, 2001.
S:http://pagina.de/MusTradAst <telloytito@asturies.org>
N:Canción de ronda, transcrita en Noreña.
O:Noreña
A:Asturies
Z:Cancioneru de Torner 102
M:3/4
L:1/8
Q:1/4=76
W:Fuime a cortexar a Faro, (bis)
W:en casa de La Temprana, (bis)
W:por mucho que madrugué
W:amanecióme en la cama.
K:G
|:ddd dd3/2B/4c/4|(d3/2 (3e/4d/4c/4) B4|ddd dd3/2B/4c/4|
(d3/2 (3e/4d/4c/4) B2 c2|d3 BAG/2A/2|(B3/2 (3c/4B/4A/4) G2 z2:||


